X:1
T:Pas de deux
T:Pas de deux  - cello 
T:from "Nutcracker"
T:P. I. Tchaikovsky (arr. T.Inaba)
%%score 1 { 2 | ( 3 4 ) }
L:1/8
Q:1/4=60
M:4/4
K:G
V:1 bass nm="Violoncello" snm="Vc."
V:2 treble nm="Piano"
V:3 bass 
V:4 bass 
V:1
 z8 | z8 | z8 |!ff!"^ben marcato la melodia" G,2 F,E, D,!>(!C,- C,(B,,/A,,/)!>)! | %4
!f! G,,3 z z2!mf! (C,B,,) | (G,,>A,,) G,,2 z2 (C,B,,) | (G,,>!<(!A,,) G,,6!<)! | %7
!ff! E,2 D,C,!>(! B,,A,,- A,,(G,,/F,,/)!>)! | E,,4 z2!mf! (A,,G,,) | (E,,>F,,) E,,2 z2 (A,,G,,) | %10
 (E,,>!<(!F,,) E,,4- (E,,/G,,/)(3(B,,/E,/)G,/!<)! | B,2 A,G,!>(! F,E,- E,D,/^C,/!>)! | %12
!mf! D,2- D,E,/4D,/4^C,/4D,/4 ^D,2- D,E,/4D,/4^^C,/4D,/4 | %13
 E,2- E,F,/4E,/4^D,/4E,/4 F,2- F,G,/4F,/4E,/4F,/4 | %14
 G,2- G,A,/4G,/4F,/4G,/4 ^G,2- G,A,/4G,/4^^F,/4G,/4 | %15
 A,2- A,B,/4A,/4^G,/4A,/4 D,2- D,E,/4D,/4^C,/4D,/4 |!f! G,4 z4 | %17
!ff! !>!G,2 !tenuto!F,!tenuto!E,!>(! D,C,- C,(B,,/A,,/)!>)! |!mf! G,,3 z z2 (C,B,,) | %19
 (G,,>A,,) G,,2 z2 (C,B,,) | (G,,>A,,)!<(! G,,6!<)! | %21
!ff! !>!E,2 !tenuto!D,!tenuto!C,!>(! B,,A,,- A,,(G,,/F,,/)!>)! |!mf! E,,6 A,,G,, | %23
 (E,,>F,,) E,,2 z2 A,,G,, |"^poco stringendo" E,,6[Q:1/4=65] z2 |"^Poco piu mosso" z8 | z8 | z8 | %28
 z4 z z"^cantabile" (B,A,) | !tenuto!G,2 !tenuto!D!tenuto!C (B,3/2C/4)B,/4 A,G, | %30
 (B,2 A,2) z2 (A,B,) |!<(! (E,3/2F,/4)E,/4 ^D,E,!>(! (G,2 F,)E,!<)!!>)! | %32
!p! B,,4- B,, z"^esoress."!p! (^A,,B,,) |"^Incalzando" (C,2 =A,,)G,,!<(! (F,,2 A,,)C,!<)! | %34
!>(! (E,2 ^D,2)!>)! z2 (^A,,B,,) | (C,2 =A,,)G,,!<(! (F,,2 (3A,,)C,E,!<)! | %36
!>(! (G,2 F,4)!p! (3(B,,^D,F,)!>)! | (!>!A,2 G,4) (3(C,E,G,) | %38
"^animando" (3:2:2(!>!B,2 A,) (3(^D,F,)A, (3:2:2(!>!C2 B,) (3(E,^G,)B, | %39
 (3:2:2(!>!D,2 C,) (3(F,,A,,)C, (3:2:2(!>!E,2 ^D,) (3(F,,B,,)D, | %40
 (3:2:2(!>!F,2 E,)!ff! G,4 (F,E,) |"^retenuto" !>!E,2 !>!D!>!C !>!B,!>!A,- A,!>!G,/!>!F,/ | %42
 !>!C2 !>!B,!>!A, !>!G,!>!F,- F,!>!E,/!>!^D,/ | A,2 z2 z4 | z8 |"^Tempo I" z8 | %46
!ff!"^marcato" G,2 F,E, D,C,- C,(B,,/A,,/) | G,,3 z z2 (7:4:7(G,,/A,,/B,,/^C,/^D,/E,/F,/ | %48
 G,2) F,E, D,C,- C,B,,/A,,/ | G,,3 z z2 (7:4:7(G,,/A,,/B,,/^C,/^D,/E,/)F,/ | %50
"^poco stringendo" G,2 F,E, G,2 F,E, | (3G,F,E, (3G,F,E, (3G,F,E, (3G,F,E, | %52
 G,/F,/E,/F,/ G,/F,/E,/F,/ G,/F,/E,/F,/ G,/F,/E,/F,/ | %53
 G,/F,/E,/F,/ (3(G,/F,/E,/)(3(E,/F,/G,/) (3(G,/F,/E,/)(3(E,/F,/G,/) (3(G,/F,/E,/)(3(E,/F,/G,/) | %54
"^Tempo I"!fff! G,2 F,E, D,C,- C,!>!B,,/!>!A,,/ | G,,4 z2 z2 | G,2 F,E, D,C,- C,!>!B,,/!>!A,,/ | %57
 G,,3 z z2!f! (E,D,) | (!>!B,,>D,) C, z z2 (B,,A,,) | (!>!F,,>A,,) G,, z z2 (E,D,) | %60
!<(! (!>!B,,>D,) C, z z2!ff! (!>!B,A,)!<)! | (!>!F,>A,) G, z z2 (!>!B,A,) | %62
 (!>!F,>A,) G, z z2 (B,A,) | (F, A,2 G,,) (^C, E,2 D,) | (^A,, C,2 B,,) (F, A,2 G,) | %65
!ff! C z z2 z4 | %66
!mp!!<(! (3_E,,/=F,,/^F,,/(3G,,/A,,/B,,/ (3C,/D,/_E,/(3=F,/^F,/G,/!<)!!fff! A,/4B,/4C/4D/4_E z2 | %67
 z8 | z8 | z8 | G,8 | G,8 | G, z z2!ff! G, z z2 | D, z z2 G,, z z2 |] %74
V:2
!f! (3z/ (G,/B,/(3D/G/B/ (3d/B/G/(3D/B,/G,/) (3z/ (G,/B,/(3E/G/B/ (3e/B/G/(3E/B,/G,/) | %1
 (3z/ (A,/C/(3E/A/c/ (3e/c/A/(3E/C/A,/) (3z/ (F,/A,/(3D/F/A/ (3d/A/F/(3D/A,/F,/) | %2
 (3z/ (G,/B,/(3D/G/B/ (3d/B/G/(3D/B,/G,/) (3z/ (G,/B,/(3E/G/B/ (3e/B/G/(3E/B,/G,/) | %3
!ff! (3(G/A,/C/(3E/A/c/ (3e/c/A/(3E/C/A,/) (3(D/F,/A,/!>(!(3C/F/A/ (3d/A/F/(3D/F/D/)!>)! | %4
!f! (3z/ (B,/D/(3G/D/B/ (3d/B/G/(3D/B,/G,/) (3z/ (F,/A,/(3D/F/A/!mf! (3d/A/F/(3D/F/D/) | %5
 (3z/ (A,/D/(3G/D/B/ (3d/B/G/(3D/B,/G,/) (3z/ (F,/A,/(3D/F/A/ (3f/A/F/(3D/F/D/) | %6
 (3z/ (B,/D/(3G/D/B/!<(! (3d/B/G/(3D/B,/G,/) (3z/ (G,/B,/(3E/G/B/ (3e/B/G/(3E/B,/G,/)!<)! | %7
 (3(E/A,/C/(3E/F/A/ (3e/A/F/(3E/F/E/) (3z/!>(! (^D/F/(3B/F/B/ (3^d/B/F/(3B/D/B,/)!>)! | %8
 (3z/ (G,/B,/(3E/G/B/ (3e/B/G/(3E/B,/G,/) (3z/ (A,/C/(3E/A/c/!mf! (3e/c/A/(3E/C/A,/) | %9
 (3z/ (G,/B,/(3E/G/B/ (3e/B/G/(3E/B,/G,/) (3z/ (A,/C/(3E/A/c/ (3e/c/A/(3E/C/A,/) | %10
 (3z/!<(! (G,/B,/(3E/G/B/ (3e/B/G/(3E/B,/G,/) (3z/ (G,/B,/(3E/G/B/ (3e/B/G/(3E/G/E/)!<)! | %11
 B x A(3(G/E/A,/)!>(! G,(3(E/G/^c/ (3e/c/G/(3E/G/E/)!>)! | %12
!mf! z (3z/ (F/A/ (3d/A/F/) z2 (3z/ (F/A/ (3^d/a/f/) z | %13
 [g=c'e'g']2 [ff'][ee'] [=da=d'][cc'][Bb][Aa] | %14
 [GBeg](3(G/B/e/ (3g/e/B/(3A/G/F/) ^G (3z/ (B/e/ (3^g/e/B/(3G/^^F/G/) | %15
 A-(3A/(E/A/ (3d/A/E/)(3(A/E/A/) (3(d/C/F/)(3(A/C/F/) (3(=G/C/D/)(3(F/C/D/) | %16
!f! [GBdg](3(D/G/B/ (3d/B/G/(3D/B,/G,/) (3z/ (G,/B,/(3E/G/B/ (3e/B/G/(3E/B,/G,/) | %17
!ff! [GAeg]2 [EAe]2!>(! [DFAd]2 [A,DFA]2!>)! | %18
!mf! [GBdg] (3(D/G/B/ (3d/B/G/(3D/B,/G,/) (3z/ (A,/D/(3F/D/F/) (3(c/F/D/)(3(B/F/D/) | %19
 (3(G/B,/D/(3G/B/d/ (3g/d/B/(3G/D/B,/) (3z/ (A,/D/(3F/D/F/) (3(c/F/D/)(3(B/F/D/) | %20
 (3(G/B,/D/(3G/B/d/ (3g/d/B/(3G/D/B,/) (3z/!<(! (B,/E/(3G/B/e/ (3g/e/B/(3G/E/B,/)!<)! | %21
!ff! [EFce]2 z2!>(! [B,^DFB]2 z2!>)! | %22
 [G,B,E](3(E/G/B/ (3e/B/G/(3E/B,/G,/) (3z/ (A,/C/(3E/A/c/) (3(A/c/e/)(3(A/c/e/) | %23
 (3z/ (G,/B,/(3E/G/B/ (3e/B/G/(3E/B,/G,/) (3z/ (A,/C/(3E/A/c/) (3(A/c/e/)(3(A/c/e/) | %24
"^poco stringendo" (3z/ (G,/B,/(3E/G/B/ (3e/B/G/(3E/B,/G,/) z (3(G/B/e/)!p!"_espress." (gf) | %25
"^Poco piu mosso" !tenuto!e2 !tenuto!b!tenuto!a (g3/2a/4)g/4 fe | (g2 f4) (ef) | %27
!<(! (B3/2c/4B/4 ^AB) c2 (dc!<)! | B) z [B,^DF]2!>(! [B^dfb] z!>)! z2 | %29
 z2!p! (5:4:10(D/4E/4F/4G/4A/4B/4c/4d/4e/4f/4 g) z!p! (5:4:10(G/4A/4B/4c/4d/4e/4f/4g/4a/4^a/4 | %30
 b) z [B,^DFB]2 [B^dfb]2 z2 | %31
!<(! z2 (5:4:5(B,/4^C/4^D/4E/4F/4(5:4:5G/4A/4B/4^c/4^d/4!<)!!>(! e) z (5:4:5(C/4D/4E/4F/4G/4(5:4:5A/4_B/4c/4d/4e/4!>)! | %32
!p! f) z z2 b z"^espress."!p! ([^A,^A][B,B]) | %33
"^Incalzando" ([Cc]2 [=A,=A][G,G])!<(! ([F,F]2 [A,A][Cc])!<)! | %34
!>(! ([Ee]2 [^D^d])!>)!(6:4:6(B,/4D/4F/4B/4d/4f/4 (6:4:6b/4f/4d/4B/4F/4D/4B,) ([^A,^A][B,B]) | %35
 ([Cc]2 [=A,=A][G,G])!<(! ([F,F]2 (3[A,A][Cc][Ee])!<)! | %36
!>(! ([Gg]2 [Ff])!>)!(6:4:6(B/4^d/4f/4b/4^d'/4f'/4 (6:4:6b'/4f'/4d'/4b/4f/4d/4B)!p! (3(B[^Dd][Ff]) | %37
 (!>![Aa]2"_cresc." [Gg])(6:4:6(B/4e/4g/4b/4e'/4g'/4 (6:4:6b'/4g'/4e'/4b/4g/4e/4B) (3(c[Ee][Gg]) | %38
"^animando" (3:2:2(!>![Bb]2 [Aa]) (3([^D^d][Ff][Aa]) (3:2:2(!>![cc']2 [Bb]) (3([Ee][^G^g][Bb]) | %39
 (3:2:2(!>![=d=d']2 [cc']) (3([Ff][Aa][cc']) (3:2:2(!>![ee']2 [^d^d']) (3([Ff][Bb][dd']) | %40
 (3:2:2(!>![ff']2 [ee'])!ff! [gbe'g']4 ([ff'][ee']) |"^retenuto" [ac'e']6 [Ace]2 | [ea]6 [FAcf]2 | %43
 [FA]2 !>!G!>!F z4 | z8 | %45
"^Tempo I" [EGBe]!<(!(6:4:6(E/4G/4B/4e/4g/4b/4 (6:4:6e'/4b/4g/4e/4B/4G/4E) [EGce](6:4:6(E/4G/4c/4e/4g/4c'/4 (6:4:6e'/4c'/4g/4e/4c/4G/4E)!<)! | %46
"^marcato"!ff! [be'g'b']2 [ff'][ee'] [dfad'][cc']- [cc'][Bb]/[Aa]/ | %47
 [GBdg]2- [GBdg] z z2 (7:4:7(g/a/b/^c'/^d'/e'/f'/ | %48
 [g=c'e'g']2) [ff'][ee'] [=dfa=d'][cc']- [cc'][Bb]/[Aa]/ | %49
 [GBdg]2- [GBdg] z z2 (7:4:7(g/a/b/^c'/^d'/e'/f'/) | %50
"^poco stringendo""_cresc." [g=c'e'g']2 [ff'][ee'] [gc'e'g']2 [ff'][ee'] | %51
 (12:8:12[gbg'b'][ff'][ee'] [gg'][ff'][ee'] [^gae'g'][ff'][ee'] [gg'][ff'][ee'] | %52
 [gg']/[ff']/[ee']/[ff']/ [gg']/[ff']/[ee']/[ff']/ [gg']/[ff']/[ee']/[ff']/ [gg']/[ff']/[ee']/[ff']/ | %53
 [gg']/[ff']/[ee']/[ff']/ (3(g'/f'/e'/)(3(e'/f'/g'/) (3(g'/f'/e'/)(3(e'/f'/g'/) (3(g'/f'/e'/)(3(e'/f'/g'/) | %54
!fff!"^Tempo I" [c'e'g']4 [dfad']2 [cdfa]2 | !///-![Bdg]2 G2 !///-![egb] B !///-![gbe'] e | %56
 [c'e'g']4 [dfad']2 [cdfa]2 |!>(! [GBdg] z (6:4:6G,/B,/D/G/B/d/ g!>)! z!f! ([EBe][Dd]) | %58
 ([DGB]>[B,d] [CGc]) z z2 ([Bfb][Aa] | ([Adf]>)[Fa] [GBdg]) z z2 ([ebe'][dd']) | %60
!<(! ([dgb]>[Bd'] [cgc']) z z2!<)!!ff!!8va(! ([gf'b'][aa']) | %61
 ([ad'f']>[fa'] [gbd'g']) z z2 ([bf'b'][aa']) | ([ad'f']>[fa'] [gbd'g']) z z2 ([bf'b'][aa']) | %63
 d'4!8va)! g4 | g4 d4 | %65
!ff! (3[Gc_eg]G,A, (3B,C[CD]!<(! [C_E]/[CE=F]/[CE^F]/[CEG]/ [CEA]/[CEB]/[Cc]/[Dd]/!<)! | %66
!<(! (3[_EGc_e]/[=F=f]/[^F^f]/(3[Gg]/[Aa]/[Bb]/ (3[cec']/[dd']/[e_e']/(3[=f=f']/[^f^f']/[gg']/!<)!!8va(! [ae'a']/4[bb']/4[c'c'']/4[d'd'']/4[e'_e'']!8va)! z2 | %67
!ff! [GBeg]8 | [GB_eg]8 | [GBdg]8 | [G,B,DG]8 | [G,B,DG]8 | [gbd'g'] z z2!ff! [gbd'g'] z z2 | %73
 [GBdg] z z2 [G,B,DG] z !fermata!z2 |] %74
V:3
"_con Ped." [G,,B,,D,] z [D,G,B,] z [E,,G,,B,,E,] z [E,G,B,] z | %1
 [C,,E,,A,,C,] z [C,E,A,] z [D,,F,,A,,D,] z [D,F,A,] z | %2
 [G,,B,,D,] z [D,G,B,] z [E,,G,,B,,E,] z [E,G,B,] z | %3
 [C,,E,,A,,C,] z [A,CF] z [D,,F,,A,,D,] z [D,F,A,] z | %4
 [G,,B,,D,G,] z [D,G,B,] z [G,,C,D,] z [D,F,C] z | [G,,B,,D,] z [D,G,B,] z [G,,C,D,] z [D,F,C] z | %6
 [G,,B,,D,G,] z [D,G,B,] z [E,,G,,B,,E,] z [E,G,B,] z | %7
!ff! [A,,E,F,] z [E,F,A,D] z [B,,^D,F,B,] z [D,F,A,B,] z | %8
 [E,,G,,B,,E,] z [E,G,B,] z [E,,A,,C,] z [C,E,A,] z | %9
 [E,,G,,B,,E,] z [E,G,B,] z [E,,A,,C,] z [C,E,A,] z | %10
 [E,,G,,B,,E,] z [E,G,B,] z [D,,G,,B,,D,] z [D,E,G,B,] z | %11
 (3(^C,,/A,,/E,/[I:staff -1](3A,/C/E/)[I:staff +1] (3(^C,/E,/G,/A,) (3(A,,,/A,,/^C,/)G, [G,A,] z | %12
 (3(D,,/D,/F,/A,) [D,F,A,](3(D,/A,,/F,,/ (3D,/^G,/A,/B,) [F,A,B,](3(A,/G,/D,/) | %13
 (3z/ (A,,/=C,/(3F,/A,/=C/ (3E/C/A,/(3F,/C,/A,,/) (3z/ (=D,/F,/(3A,/C/D/ (3F/D/C/(3A,/F,/D,/) | %14
 (3(E,/G,/B,/E) [B,EG] z (3(D,/^G,/B,/E) [B,E^G] z | (3(C,/E,/A,/C) DC [D,F,]2 G,F, | %16
 (3(G,,/B,,/D,/G,) [D,G,B,] z [E,,G,,B,,E,] z [E,G,B,] z | %17
 (3(C,,/G,,/A,,/(3C,/G,/A,/ (3C/A,/G,/(3C,/A,,/G,,/) (3(D,,/F,,/A,,/(3D,/F,/A,/ (3D/A,/F,/(3D,/A,,/F,,/) | %18
 (3(G,,/B,,/D,/G,) [D,G,B,] z [G,,D,F,] z [D,F,]2 | %19
 [G,,B,,D,G,] z [D,G,B,] z [G,,D,F,] z [D,F,C] z | %20
 [G,,B,,D,G,] z [D,G,B,] z [E,,G,,B,,E,] z [E,G,B,E] z | %21
 (3(A,,,/E,,/F,,/(3A,,/E,/F,/ (3A,/F,/E,/(3A,,/F,,/E,,/) (3(B,,,/^D,,/F,,/(3B,,/^D,/F,/ (3B,/F,/D,/(3B,,/F,,/D,,/) | %22
 (3(E,,/G,,/B,,/E,) [E,G,B,] z [E,,A,,C,E,] z [E,,A,,C,E,]G,, | %23
 [E,,G,,B,,E,] z [E,G,B,] z [E,,A,,C,E,] z [E,,A,,C,E,]G,, | %24
 [E,,G,,B,,E,] z [E,G,B,] z (3(E,/G,/B,/E)[K:treble] [EGB]/[EGB]/[EGB]/[EGB]/ | %25
 [EGB]/[EGB]/[EGB]/[EGB]/ [EGB]/[EGB]/[EGB]/[EGB]/ [EGB]/[EGB]/[EGB]/[EGB]/ [EGB]/[EGB]/[EGB]/[EGB]/ | %26
 [EAc]/[EAc]/[EAc]/[EAc]/ [EAc]/[EAc]/[EAc]/[EAc]/ [CEA]/[CEA]/[CEA]/[CEA]/ [CEA]/[CEA]/[CEA]/[CEA]/ | %27
 [B,^DF]/[B,DF]/[B,DF]/[B,DF]/ [B,DF]/[B,DF]/[B,DF]/[B,DF]/ [=A,EF]/[A,EF]/[A,EF]/[A,EF]/ [A,EF]/[A,EF]/[A,EF]/[A,EF]/ | %28
 [B,^DF]/[I:staff -1][B,^DF]/[B,DF]/[B,DF]/[I:staff +1][K:bass] (3B,,,/4^D,,/4F,,/4(3B,,/4^D,/4F,/4[I:staff -1](3B,/4^D/4F/4(3B/4^d/4f/4[I:staff +1] [B,^DF]/[B,DF]/[B,DF]/[B,DF]/ [=DF]/[DF]/[B,DF]/[B,DF]/ | %29
 [B,=DG]/[B,DG]/[B,DG]/[B,DG]/ [B,G]/[B,G]/[DG]/[DG]/ [DG]/[DG]/[DG]/[DG]/ [B,DG]/[B,DG]/[B,DG]/[B,DG]/ | %30
 [^DFB]/[DFB]/[DFB]/[DFB]/!p! (5:4:10F,,/4A,,/4^D,/4F,/4B,/4[I:staff -1]^D/4F/4B/4^d/4f/4[I:staff +1] z/ [DFB]/[DFB]/[DFB]/ [DFB]/[DFB]/[DFB]/[DFB]/ | %31
 [EGB]/[EGB]/[EGB]/[EGB]/ [B,G]/[B,G]/[B,G]/[B,G]/ [^A,E]/[A,E]/[A,E]/[A,E]/ [E,A,]/[E,A,]/[E,A,]/[E,A,]/ | %32
 [^D,F,B,]/[D,F,B,]/[D,F,B,]/[D,F,B,]/ (6:4:6B,,,/4^D,,/4F,,/4B,,/4^D,/4F,/4[I:staff -1](6:4:6B,/4^D/4F/4B/4^d/4f/4[I:staff +1] (3[D,F,][D,F,][D,F,] (3[D,F,][D,F,][D,F,] | %33
 (3[E,=A,][E,A,][E,A,] (3[C,E,][C,E,][C,E,] (3[C,E,A,][C,E,A,][C,E,A,] (3[C,E,][C,E,][E,A,] | %34
 (3[F,A,][F,A,][F,A,] (3[F,A,][F,A,][F,A,] (3[F,A,][F,A,][F,A,] (3[^D,F,][D,F,][D,F,] | %35
 (3[E,=A,][E,A,][E,A,] (3[C,E,][C,E,][C,E,] (3[C,E,A,][C,E,A,][C,E,A,] (3[C,E,][E,A,][E,A,] | %36
 (3[B,,^D,A,][B,,D,A,][B,,D,A,] (3[B,,D,A,][A,B,^D][A,B,D] (3[A,B,D][A,B,D][A,B,D] (3[B,,D,A,][B,,D,A,][B,,D,A,] | %37
 (3[B,,E,G,][B,,E,G,][B,,E,G,] (3[B,,E,G,][G,B,E][G,B,E] (3[G,B,E][G,B,E][G,B,E] (3[B,,E,G,][B,,E,G,][B,,E,G,] | %38
 (3[B,,C,E,A,][B,,C,E,A,][B,,C,E,A,] (3[B,,^D,F,A,][B,,D,F,A,][B,,D,F,A,] (3[B,,E,G,][B,,E,G,][B,,E,G,] (3[B,,E,^G,][B,,E,G,][B,,E,G,] | %39
 (3[B,,E,A,][B,,E,A,][B,,E,A,] (3[B,,E,A,][B,,E,A,][B,,E,A,] (3[B,,F,A,][B,,F,A,][B,,F,A,] (3[B,,F,A,][B,,F,A,][B,,F,A,] | %40
 (3[B,,G,B,][B,,G,B,][B,,G,B,] (!///-!B,,, B,,) (!///-!B,,,2 B,,2) | (!///-!B,,,4 B,,4) | %42
 (!///-!B,,,4 B,,4) | (!///-!B,,, B,,) !>!G,!>!F, !>![E,E]!>![^D,^D]!>![C,C]!>![B,,B,] | %44
 !>![A,,A,]!>![G,,G,]!>![F,,F,]!>![E,,E,]- (3[E,,E,]!>![^D,,^D,]!>![=D,,=D,] (3!>![^C,,^C,]!>![=C,,=C,]!>![B,,,B,,] | %45
"_con Ped."!f! (!///-![E,,G,,B,,]2 E,2) (!///-![E,,G,,B,,]2 E,2) | %46
 (!///-![A,,,C,,E,,]2 A,,2) (!///-![D,,F,,A,,]2 D,2) | %47
 (!///-![G,,B,,D,]2 G,2) (!///-![E,,G,,B,,]2 E,2) | %48
 (!///-![A,,,C,,E,,]2 A,,2) (!///-![D,,F,,A,,]2 D,2) | %49
 (!///-![G,,B,,D,]2 G,2) (!///-![E,,G,,B,,]2 E,2) | %50
 (!///-![A,,,C,,E,,]2 A,,2) (!///-![^A,,,C,,E,,]2 ^A,,2) | %51
 (6:4:6([B,,,E,,G,,]/B,,/[B,,,E,,G,,]/B,,/[B,,,E,,G,,]/B,,/) (6:4:6([B,,,E,,G,,]/B,,/[B,,,E,,G,,]/B,,/[B,,,E,,G,,]/B,,/) (6:4:6([C,,E,,G,,]/C,/[C,,E,,G,,]/C,/[C,,E,,G,,]/C,/) (6:4:6([C,,E,,G,,]/C,/[C,,E,,G,,]/C,/[C,,E,,G,,]/C,/) | %52
 !>![C,,E,,G,,C,]2 !>![^C,,G,,^A,,^C,]2 !>![D,,G,,B,,D,]4 | %53
 !>![^D,,G,,B,,^D,]!>![E,,E,]!>![G,,G,]!>![B,,B,] !>![E,E][K:treble]!>![G,G]!>![B,B]!>![Ee] | %54
"_con Ped." (!///-![C,,E,,A,,]2 C,2) (!///-![D,,F,,A,,]2 D,2) | %55
 (!///-![G,,B,,D,]2 G,2) (!///-![E,,G,,B,,]2 E,2) | %56
 (!///-![C,,E,,A,,]2 C,2) (!///-![D,,F,,A,,]2 D,2) | (!///-!G,,,2 G,,2) (!///-!G,,2 =F,2) | %58
 (!///-!G,,2 E,2) (!///-!G,,2 _E,2) | (!///-!G,,2 D,2) (!///-!G,,2 =F,2) | %60
 (!///-!G,,2 =E,2) (!///-!G,,2 _E,2) | (!///-!G,,2 D,2) (!///-!G,,2 _E,2) | %62
 (!///-!G,,2 D,2) (!///-!G,,2 _E,2) | (!///-!G,,2 D,2) (!///-!G,,2 B,,2) | %64
 (!///-!D,,2 G,,2) (!///-!B,,,2 D,,2) | %65
 (3[G,,,C,,_E,,G,,]!p![G,,C,_E,][G,,C,E,] (3[G,,C,E,G,][G,,C,E,G,][G,,C,E,G,] [G,,C,E,G,]/[G,,C,E,G,]/[G,,C,E,G,]/[G,,C,E,G,]/ [G,,C,E,G,]/[G,,C,E,G,]/[G,,C,E,G,]/[G,,C,E,G,]/ | %66
!mp! (3[G,,C,_E,G,]/[G,,C,E,G,]/[G,,C,E,G,]/(3[G,,C,E,G,]/[G,,C,E,G,]/[G,,C,E,G,]/ (3[G,,C,E,G,]/[G,C_E]/[G,CE]/(3[G,CE]/[G,CE]/[G,CE]/!fff! [G,CE]/4[G,CE]/4[G,CE]/4[G,CE]/4[G,CE] (G,/4C/4E/4G/4[I:staff -1]g/4_e/4c/4G/4) | %67
"_semple Ped."[I:staff +1] (3(G,/B,/_E/(3G/E/C/) (3(G,/B,/E/(3G/E/C/) (3(G,/B,/E/(3G/E/C/) (3(G,/B,/E/(3G/E/C/) | %68
 (3(G,/B,/_E/(3G/E/C/) (3(G,/B,/E/(3G/E/C/) (3(G,/B,/E/(3G/E/C/) (3(G,/B,/E/(3G/E/C/) | %69
 (3(G,/B,/D/(3G/D/B,/) (3(G,/B,/D/(3G/D/B,/) (3(G,/B,/D/(3G/D/B,/) (3(G,/B,/D/(3G/D/B,/) | %70
 (3(G,,/B,,/D,/(3G,/D,/B,,/) (3(G,,/B,,/D,/(3G,/D,/B,,/) (3(D,,/G,,/B,,/(3D,/B,,/G,,/) (3(B,,,/D,,/G,,/(3B,,/G,,/D,,/) | %71
 (3(G,,,/B,,,/D,,/(3G,,/D,,/B,,,/) (3(G,,,/B,,,/D,,/(3G,,/D,,/B,,,/) (3(G,,,/B,,,/D,,/(3G,,/D,,/B,,,/) (3(G,,,/B,,,/D,,/(3G,,/D,,/B,,,/) | %72
 !///-!G,,,4 G,,4 | !///-!G,,,2 G,,2 G,,, z z2 |] %74
V:4
 x8 | x8 | x8 | x8 | x8 | x8 | x8 | x8 | x8 | x8 | x8 | x8 | x8 | x8 | x8 | x4 B,A, x2 | x8 | x8 | %18
 x8 | x8 | x8 | x8 | x8 | x8 | x6[K:treble] x2 | x8 | x8 | x8 | x2[K:bass] x6 | x8 | x8 | x8 | x8 | %33
 x8 | x8 | x8 | x8 | x8 | x8 | x8 | x8 | x8 | x8 | x8 | x8 | x8 | x8 | x8 | x8 | x8 | x8 | x8 | %52
 x8 | x5[K:treble] x3 | x8 | x8 | x8 | x8 | x8 | x8 | x8 | x8 | x8 | x8 | x8 | x8 | x8 | x8 | x8 | %69
 x8 | x8 | x8 | x8 | x8 |] %74

